**kern	**kern
*part1	*part1
*staff2	*staff1
*I"Piano	*
*I'Pno.	*
*clefF4	*clefG2
*k[b-]	*k[b-]
*M12/8	*M12/8
=1	=1
4.A 4.e	4cc
.	8b-
4.F 4.c	4a
.	8g
4.D 4.A	4f
.	8e
*	*^
4.BB- 4.F	4cc	4d
.	8b-	8d-X
=2	=2	=2
4.C 4.F	4.a	4c
.	.	8Bn
2.CC 2.E	4g	4B-X
.	8a	8A
.	(4.b-	4G
.	.	8G-X
4FF 4F	4a)	4F
8r	8r	8f
=3	=3	=3
2.r	4ff	4.d 4.a
.	8ee	.
.	4dd	4.B- 4.f
.	8cc	.
2.G 2.d	4gg	2.b-
.	8ff	.
.	4ee	.
.	8dd	.
!!linebreak:original
=4	=4	=4
*^	*	*
4.e	4A	4.cc#X	4.a
.	8G	.	.
4d	4.F	4dd	4.a
8c	.	8dd#X	.
4.Bn	2.E	2.ee	4a
.	.	.	8g#X
4A	.	.	4f#X
8G#X	.	.	8e
*v	*v	*	*
=5	=5	=5
4.C 4.Gn	4ee	2.e
.	8dd	.
4.AA 4.E	4cc	.
.	8bn	.
4.FF 4.C	4a	4.f
.	8b	.
4.CC 4.GG	4cc	4.e
.	8g	.
=6	=6	=6
4.D 4.A	4ff	2.f
.	8ee	.
4.BB- 4.F	4dd	.
.	8cc	.
4.GG 4.D	4.b-	4g
.	.	8f
4.AA 4.C#X	4a	4.e
.	8g	.
*	*v	*v
!!linebreak:original
=7	=7
*^	*
4D	4.BB-	4.d 4.f
8B-	.	.
4A	4.D	4.f 4.a
8d	.	.
4c	2.F	2.a 2.cc
8d	.	.
4e	.	.
8f	.	.
=8	=8	=8
*	*	*^
4e	2.C	4.cc	2.g
8d	.	.	.
4c	.	4.ee	.
8B-	.	.	.
4A	4FF	4ff	4f
*v	*v	*	*
*	*v	*v
8r	8r
4r	4r
8r	8r
!!linebreak:original
==9	==9
*M4/4	*M4/4
*met(c)	*met(c)
*	*^
1FF	2a	1c 1f
.	4cc	.
.	4b-	.
=10	=10	=10
1BB-	2a	1d 1f
.	2g	.
=11	=11	=11
2.C	2e 2g	2.c
.	2g#X	.
4C#X	.	4B-
*	*v	*v
=12	=12
2D	1A 1f 1a
4Cn	.
4BB-	.
=13	=13
*	*^
1AA	2a	1c 1e
.	4cc	.
.	4b-	.
=14	=14	=14
1BB-	2a	1d 1f
.	2g	.
=15	=15	=15
2.C	2e 2g	2c
.	2g-X	2B-
4CC	.	.
*	*v	*v
=16	=16
1FF	1A 1f 1f
!!linebreak:original
==17	==17
*k[f#]	*k[f#]
*M3/4	*M3/4
4r	4b
=18	=18
2.BB 2.F# 2.A	(4e
.	8d#XL)
.	8b
.	8a
.	8gJ
=19	=19
2C 2G 2G	(4f#
.	8e)
.	8r
4r	4ee
=20	=20
2.D 2.A 2.c	(4g
.	8f#L)
.	8dd
.	8cc
.	8bJ
=21	=21
2E 2B 2B	(4a
.	8g)
.	8r
4r	4b
=22	=22
*	*^
4r	4.dd	4r
2AA 2E	.	4e
.	8ccL	.
.	8b	4c
.	8aJ	.
=23	=23	=23
4r	2a#X	4r
2GG 2D	.	4c
.	4b	4B
=24	=24	=24
4r	4.ee	4r
2C 2G	.	4E
.	8ccL	.
.	8b	4e
.	8a#XJ	.
!!linebreak:original
=25	=25	=25
4r	2b	4r
4BB 4F#	.	4e
4r	[4b	4d#X
=26	=26	=26
4GG 4D	8bL]	4d
.	8aJ	.
4AA 4E	8r	4c 4g
.	4ee	.
4BB 4F#	.	4B 4f#
.	8dd#X	.
=27	=27	=27
2C 2G	8eeL	2A 2e
.	8dd#X	.
.	8ff#	.
.	8ee	.
4r	8cc	4r
.	8aJ	.
=28	=28	=28
4r	4.g	4r
2D 2A	.	2c 2d
.	8f#L	.
.	8e	.
.	8f#J	.
=29	=29	=29
4r	2g	4r
4GG 4D	.	4B 4d
*	*v	*v
==	==
*-	*-
!!!system-decoration: {(s1,s2)}
